symbolic/32x32/apps/expandrive.svg

<svg xmlns="http://www.w3.org/2000/svg" width="32" height="32" version="1.1">
 <path style="opacity:0.2" d="m 16.509766,2.9992381 c -0.283641,-0.012488 -0.535762,0.2142938 -1.123047,0.6230469 -1.624508,1.1306774 -2.942036,2.4617425 -3.759766,3.75 -3.16e-4,4.985e-4 3.16e-4,0.00145 0,0.00195 -0.160695,0.2532647 -0.303974,0.5039233 -0.423828,0.7519531 -0.0038,0.00771 -0.008,0.01573 -0.01172,0.023437 -0.120264,0.2514141 -0.225944,0.5001365 -0.300781,0.7421875 -0.133821,0.4328086 -0.221834,0.8049445 -0.195313,0.828125 l -0.0039,0.5761718 C 9.9098338,10.085392 9.1907371,10.041296 8.390625,10.180879 6.7460163,10.467788 4.4619708,11.605506 2.7617188,12.983613 L 2,13.6008 2.2695312,14.591035 c 0.5475964,2.013252 1.3429703,3.683306 2.3183594,4.931641 0.00122,0.0015 0.00269,0.0023 0.00391,0.0039 0.2025562,0.258917 0.4109715,0.499932 0.6289062,0.720703 0.00125,0.0013 0.00266,0.0026 0.00391,0.0039 0.035802,0.03623 0.069268,0.07421 0.1054687,0.109375 0.061293,0.05956 0.1231306,0.117331 0.1855469,0.173828 0.00269,0.0025 0.00513,0.0054 0.00781,0.0078 0.1642449,0.148207 0.3302282,0.293369 0.5019531,0.419922 l 0.5253906,0.386718 0.453125,0.347657 c -0.6179085,1.053129 -0.7859644,2.128739 -0.6972656,3.873046 0.081043,1.593773 0.232509,2.356652 0.8417969,4.253907 0.2962551,0.922506 0.3783328,1.054256 0.6953125,1.103515 0.7240623,0.112522 2.268575,0.09256 3.373047,-0.04297 1.105591,-0.135661 2.027701,-0.374034 2.849609,-0.708985 2.91e-4,0.0044 -2.91e-4,0.0073 0,0.01172 0.114278,-0.0464 0.215903,-0.105826 0.326172,-0.15625 0.16499,-0.07604 0.335978,-0.146456 0.492188,-0.232422 0.29475,-0.160387 0.578109,-0.336738 0.845703,-0.535156 l 0.572265,-0.423828 v -0.002 l 0.308594,-0.365235 c 0.532523,0.605959 1.146009,1.099921 1.822266,1.423828 0.478079,0.228988 1.278246,0.519402 1.779297,0.644532 1.13091,0.282433 3.453139,0.479744 4.503906,0.382812 l 0.791015,-0.07227 0.341797,-0.96875 c 0.737185,-2.083507 1.056181,-3.969797 0.951172,-5.511718 -8.8e-5,-0.0013 8.9e-5,-0.0026 0,-0.0039 -0.02244,-0.327189 -0.0596,-0.643452 -0.121093,-0.9375 -0.0036,-0.01724 -0.0041,-0.0376 -0.0078,-0.05469 -0.08892,-0.406612 -0.203197,-0.786956 -0.294922,-1.066406 -0.09122,-0.278536 -0.161587,-0.455691 -0.162109,-0.457032 -2e-6,-5e-6 0,-0.002 0,-0.002 l -0.232422,-0.439453 c 0.361764,-0.160898 0.708792,-0.345865 1.041016,-0.58789 1.377735,-1.00368 2.657223,-3.098965 3.533203,-5.785157 L 31,13.676972 30.433594,13.149629 c -0.868991,-0.808231 -2.015233,-1.556698 -3.357422,-2.19336 -0.708084,-0.335877 -1.236412,-0.548542 -1.732422,-0.683593 -0.251661,-0.06852 -0.500367,-0.115489 -0.751953,-0.146485 -0.0152,-0.0019 -0.02965,-0.008 -0.04492,-0.0098 -0.0012,-1.43e-4 -0.0027,1.42e-4 -0.0039,0 -0.263976,-0.03014 -0.540268,-0.04437 -0.847657,-0.04492 -0.0063,-1.1e-5 -0.01121,0 -0.01758,0 -7.07e-4,0 -0.0012,0 -0.002,0 h -0.923828 l -0.554687,0.134765 C 22.123771,9.4147612 21.945904,8.691839 21.673828,8.1320506 21.012579,6.7739175 19.655337,5.2111763 18.123047,4.04416 17.191863,3.3349626 16.831238,3.0133935 16.509766,2.9992381 Z"/>
 <path style="fill:#9a1b29" d="m 10.695685,8.7210928 6.422621,1.7217542 5.63426,-1.3708106 0.8948,6.9204856 2.568219,4.858018 -6.168016,2.538566 -3.745715,4.449912 -9.7501155,-7.48985 4.1089235,-6.576025 z"/>
 <path style="fill:#ef344a" d="m 16.509888,2.0004909 c -0.283641,-0.012488 -0.536742,0.2138248 -1.124027,0.6225779 -2.278364,1.585769 -3.968518,3.5672108 -4.49473,5.2691826 -0.133821,0.4328086 -0.221636,0.805859 -0.195115,0.8290395 0.02658,0.023184 0.559776,0.2859395 1.184954,0.5839155 2.063011,0.9832766 3.485682,2.3250096 4.296881,4.0523286 0.586629,1.249127 0.456101,1.335281 -0.151614,0.100042 C 15.298371,11.978136 14.09514,10.820619 12.390092,9.9596687 10.80654,9.1600677 9.7238324,8.9497142 8.3897896,9.1824439 6.7451809,9.4693529 4.4616823,10.606132 2.7614302,11.984239 L 2,12.601435 2.2693513,13.591698 c 0.7970926,2.930531 2.1094635,5.156119 3.7564183,6.369854 l 0.5259689,0.387616 1.1602665,-1.197723 c 1.8655707,-1.925921 3.614644,-2.750542 5.752165,-2.711916 l 1.158301,0.02092 -1.270552,0.09626 c -2.107955,0.159685 -3.622335,0.93805 -5.2467603,2.69677 -1.5452215,1.672966 -1.9259066,2.799162 -1.797893,5.316613 0.081043,1.593772 0.2320663,2.357352 0.8413542,4.254607 0.2962551,0.922506 0.3784362,1.052805 0.6954159,1.102064 0.7240623,0.112522 2.2674092,0.09308 3.3718812,-0.04245 1.918813,-0.235447 3.327515,-0.741244 4.513733,-1.620811 l 0.572204,-0.424485 -0.335951,-0.448 c -0.532261,-0.709924 -1.227688,-2.374069 -1.480747,-3.543147 -0.273477,-1.263418 -0.21585,-3.014938 0.123602,-3.755987 0.119963,-0.261891 0.185766,-0.36019 0.146139,-0.21842 -0.931183,3.331217 0.834013,7.660785 3.678844,9.023377 0.478079,0.228988 1.279024,0.518771 1.780075,0.643901 1.13091,0.282433 3.453168,0.479964 4.503935,0.383032 l 0.789442,-0.07294 0.342614,-0.968143 c 0.903668,-2.554041 1.189691,-4.821139 0.820983,-6.507163 -0.177842,-0.813224 -0.455205,-1.524988 -0.455205,-1.524988 0,0 -0.508062,0.146158 -1.03063,0.272263 -2.672627,0.644955 -5.642938,0.01944 -7.248191,-1.52635 l -0.639782,-0.616 0.668581,0.541068 c 1.474326,1.192981 2.781059,1.580258 5.014825,1.486291 1.856373,-0.07809 2.972224,-0.405185 4.042614,-1.184967 1.377735,-1.00368 2.657325,-3.09875 3.533305,-5.784942 L 31,12.677362 30.433671,12.150643 C 29.56468,11.342412 28.417688,10.592941 27.075499,9.9562793 25.600987,9.2568483 24.890915,9.0720364 23.676589,9.0720364 h -0.924023 l -0.08032,1.0612096 c -0.153307,2.022606 -1.046424,4.159507 -2.274305,5.441967 -0.530548,0.554136 -1.666333,1.387645 -1.890938,1.387645 -0.0571,0 0.256843,-0.245114 0.697768,-0.544655 1.277505,-0.867884 2.129339,-2.1445 2.723873,-4.082621 C 22.44718,10.447861 22.285655,8.3900438 21.674574,7.1327618 21.013325,5.7746287 19.655745,4.2117764 18.123455,3.0447601 17.192271,2.3355627 16.83136,2.0146435 16.509888,2.0004881 Z"/>
 <path style="fill:#c62937" d="m 11.627557,6.3736321 c -0.328859,0.5182226 -0.585396,1.0307753 -0.736328,1.5189455 -0.133821,0.4328086 -0.195544,0.8285152 -0.195544,0.8285152 0,0 0.560229,0.2858135 1.185407,0.5837895 2.063012,0.9832757 3.485397,2.3250247 4.296596,4.0523437 l 0.412667,1.022657 c 0,0 -0.181848,-3.430127 -4.962798,-8.0062509 z m 11.124489,2.6988285 -0.07957,1.0609374 c -0.153306,2.022606 -1.047184,4.158946 -2.275065,5.441407 -0.452236,0.472341 -1.312037,1.116591 -1.704613,1.305663 -0.01773,0.02131 -0.110584,0.138087 -0.110584,0.138087 0,0 2.891817,-0.449395 6.761812,-7.7451181 -0.53745,-0.1464918 -1.035079,-0.2009763 -1.66685,-0.2009763 z m -9.763765,7.1531254 c -1.445455,0.03954 -4.0307743,0.501286 -8.4003439,2.298243 0.00122,0.0015 0.00283,0.0025 0.00405,0.0041 0.2033029,0.25985 0.4147419,0.499333 0.6324871,0.723242 0.035802,0.03623 0.070338,0.07558 0.1065383,0.110742 0.063277,0.0625 0.1283299,0.121343 0.1928478,0.180469 0.1642449,0.148207 0.3299492,0.293173 0.5016741,0.419726 l 0.5259487,0.386915 1.1611333,-1.197657 c 1.86557,-1.925921 3.6141996,-2.751125 5.7517206,-2.7125 l 1.158436,0.02188 c 0,0 -0.283776,-0.184411 -1.082915,-0.228321 -0.161848,-0.0089 -0.345079,-0.01249 -0.551572,-0.0069 z m 4.308734,2.754883 c 0,0 1.15752,2.913296 9.503487,4.39004 -0.02371,-0.348257 -0.06153,-0.684669 -0.129464,-0.995313 -0.177842,-0.813224 -0.455822,-1.524415 -0.455823,-1.524414 0,0 -0.507751,0.145965 -1.030319,0.27207 -2.672626,0.644955 -5.643398,0.02001 -7.248652,-1.525781 z m -2.581194,0.843555 c 0,0 -1.233983,0.573427 -0.65002,9.363868 0.608404,-0.247046 1.158768,-0.549479 1.664156,-0.924219 l 0.571801,-0.425196 -0.335799,-0.447069 c -0.532259,-0.709925 -1.227688,-2.374674 -1.480747,-3.543751 -0.273477,-1.263418 -0.215382,-3.014616 0.12407,-3.755665 0.03486,-0.07611 0.05241,-0.105157 0.07687,-0.151757 0.01231,-0.03985 0.01651,-0.07593 0.02967,-0.116211 z"/>
 <path style="opacity:0.2;fill:#ffffff" d="M 16.509766 2 C 16.226125 1.987512 15.974004 2.2142938 15.386719 2.6230469 C 13.762211 3.7537243 12.444683 5.0847894 11.626953 6.3730469 C 11.626953 6.3730469 11.626953 6.375 11.626953 6.375 C 11.466258 6.6282647 11.322979 6.8789233 11.203125 7.1269531 C 11.199326 7.1346679 11.195164 7.1426827 11.191406 7.1503906 C 11.071142 7.4018047 10.965462 7.6505271 10.890625 7.8925781 C 10.756804 8.3253867 10.668792 8.6975226 10.695312 8.7207031 L 10.691406 9.296875 C 9.909834 9.0861537 9.1907371 9.0420575 8.390625 9.1816406 C 6.7460163 9.4685496 4.4619707 10.606268 2.7617188 11.984375 L 2 12.601562 L 2.2226562 13.419922 L 2.7617188 12.984375 C 4.4619707 11.606268 6.7460163 10.46855 8.390625 10.181641 C 9.1907371 10.042058 9.9098291 10.086158 10.691406 10.296875 L 10.695312 9.7207031 C 10.668791 9.6975226 10.756804 9.3253867 10.890625 8.8925781 C 10.965462 8.6505271 11.071142 8.4018047 11.191406 8.1503906 C 11.195126 8.1426836 11.199325 8.1346631 11.203125 8.1269531 C 11.322979 7.8789233 11.466258 7.6282647 11.626953 7.375 C 11.626953 7.375 11.626953 7.3730469 11.626953 7.3730469 C 12.444683 6.0847894 13.762211 4.7537243 15.386719 3.6230469 C 15.974004 3.2142938 16.226125 2.987512 16.509766 3 C 16.831238 3.0141554 17.191863 3.3357245 18.123047 4.0449219 C 19.655337 5.2119382 21.012579 6.7746794 21.673828 8.1328125 C 21.945904 8.6926009 22.123812 9.4155565 22.197266 10.207031 L 22.751953 10.072266 L 23.675781 10.072266 L 23.677734 10.072266 C 23.684104 10.072266 23.689013 10.072255 23.695312 10.072266 C 24.002702 10.072816 24.278993 10.087048 24.542969 10.117188 C 24.544169 10.11733 24.545675 10.117045 24.546875 10.117188 C 24.562145 10.118988 24.576597 10.125053 24.591797 10.126953 C 24.843383 10.157949 25.092089 10.204918 25.34375 10.273438 C 25.83976 10.408488 26.368088 10.621154 27.076172 10.957031 C 28.418361 11.593693 29.564603 12.34216 30.433594 13.150391 L 30.75 13.445312 L 31 12.677734 L 30.433594 12.150391 C 29.564603 11.34216 28.418361 10.593693 27.076172 9.9570312 C 26.368088 9.6211535 25.83976 9.4084888 25.34375 9.2734375 C 25.092089 9.2049164 24.843383 9.1579487 24.591797 9.1269531 C 24.576598 9.1250806 24.562145 9.1189416 24.546875 9.1171875 C 24.545662 9.1170444 24.544182 9.1173299 24.542969 9.1171875 C 24.278993 9.0870467 24.002701 9.0728164 23.695312 9.0722656 C 23.688968 9.0722545 23.684106 9.0722656 23.677734 9.0722656 L 23.675781 9.0722656 L 22.751953 9.0722656 L 22.197266 9.2070312 C 22.123771 8.4155232 21.945904 7.6926009 21.673828 7.1328125 C 21.012579 5.7746794 19.655337 4.2119382 18.123047 3.0449219 C 17.191863 2.3357245 16.831238 2.0141554 16.509766 2 z M 26.347656 21.228516 C 26.226738 21.290881 26.106828 21.354825 25.982422 21.410156 L 26.214844 21.849609 C 26.214844 21.849609 26.214844 21.851562 26.214844 21.851562 C 26.215366 21.852904 26.285733 22.030058 26.376953 22.308594 C 26.468678 22.588044 26.582955 22.968388 26.671875 23.375 C 26.675575 23.39209 26.676088 23.412447 26.679688 23.429688 C 26.741181 23.723736 26.778341 24.039998 26.800781 24.367188 C 26.814679 24.024632 26.822237 23.68615 26.800781 23.371094 C 26.800693 23.369797 26.80087 23.368483 26.800781 23.367188 C 26.778337 23.039999 26.741184 22.723736 26.679688 22.429688 C 26.676131 22.41245 26.675611 22.392084 26.671875 22.375 C 26.582954 21.968388 26.468678 21.588044 26.376953 21.308594 C 26.360913 21.259619 26.36214 21.270817 26.347656 21.228516 z M 6.65625 21.429688 C 6.3568011 22.205652 6.2641945 23.08531 6.3027344 24.259766 C 6.3529869 23.235275 6.5585086 22.456377 7.0039062 21.697266 L 6.65625 21.429688 z"/>
</svg>

<svg xmlns="http://www.w3.org/2000/svg" width="32" height="32"><path style="opacity:.2" d="M16.51 3c-.284-.013-.536.214-1.123.622-1.625 1.131-2.942 2.462-3.76 3.75v.002c-.16.253-.304.504-.424.752l-.012.024c-.12.251-.226.5-.3.742-.134.433-.222.805-.196.828l-.004.576a5.109 5.109 0 0 0-2.3-.115c-1.645.287-3.929 1.425-5.63 2.803L2 13.6l.27.99c.547 2.013 1.343 3.683 2.318 4.932l.004.004c.202.258.41.5.629.72l.004.004c.035.036.069.074.105.11.061.06.123.117.186.173l.007.008c.165.148.33.294.502.42l.526.387.453.347c-.618 1.054-.786 2.13-.697 3.874.08 1.593.232 2.356.841 4.253.297.923.379 1.055.696 1.104.724.112 2.268.093 3.373-.043 1.105-.136 2.028-.374 2.85-.709v.012c.114-.047.215-.106.326-.157.165-.076.336-.146.492-.232.295-.16.578-.337.845-.535l.573-.424v-.002l.308-.365c.533.606 1.146 1.1 1.823 1.424.478.229 1.278.52 1.779.644 1.13.283 3.453.48 4.504.383l.79-.072.343-.969c.737-2.084 1.056-3.97.95-5.512v-.004a6.935 6.935 0 0 0-.12-.937c-.004-.017-.004-.038-.008-.055a11.08 11.08 0 0 0-.295-1.066c-.091-.279-.162-.456-.162-.457v-.002l-.233-.44a5.61 5.61 0 0 0 1.041-.588c1.378-1.003 2.658-3.099 3.534-5.785L31 13.677l-.566-.527c-.87-.809-2.016-1.557-3.358-2.194-.708-.336-1.236-.548-1.732-.683a5.32 5.32 0 0 0-.752-.147c-.015-.002-.03-.008-.045-.01h-.004a7.538 7.538 0 0 0-.848-.045H22.752l-.555.135c-.073-.791-.251-1.514-.523-2.074-.661-1.358-2.019-2.92-3.551-4.088-.931-.709-1.292-1.03-1.613-1.045z"/><path style="fill:#9a1b29" d="m10.696 8.721 6.422 1.722 5.635-1.371.894 6.92 2.569 4.859-6.168 2.538-3.746 4.45-9.75-7.49 4.109-6.576z"/><path style="fill:#ef344a" d="M16.51 2c-.284-.012-.537.214-1.124.623-2.279 1.586-3.969 3.567-4.495 5.27-.134.432-.222.805-.195.828.027.023.56.286 1.185.584 2.063.983 3.486 2.325 4.297 4.053.586 1.249.456 1.335-.152.1-.728-1.48-1.93-2.637-3.636-3.498-1.583-.8-2.666-1.01-4-.778-1.645.287-3.928 1.424-5.629 2.802L2 12.601l.27.99c.796 2.931 2.109 5.157 3.756 6.37l.526.388 1.16-1.198c1.866-1.925 3.615-2.75 5.752-2.711l1.158.02-1.27.097c-2.108.16-3.622.938-5.247 2.696-1.545 1.673-1.926 2.8-1.798 5.317.081 1.594.232 2.357.842 4.255.296.922.378 1.053.695 1.102.724.112 2.267.093 3.372-.043 1.919-.235 3.327-.74 4.514-1.62l.572-.425-.336-.448c-.532-.71-1.228-2.374-1.48-3.543-.274-1.264-.217-3.015.123-3.756.12-.262.186-.36.146-.219-.931 3.332.834 7.661 3.679 9.024.478.229 1.279.519 1.78.644 1.13.282 3.453.48 4.504.383l.79-.073.342-.968c.903-2.554 1.19-4.821.82-6.507-.177-.814-.454-1.525-.454-1.525s-.508.146-1.031.272c-2.673.645-5.643.02-7.248-1.527l-.64-.616.669.542c1.474 1.193 2.78 1.58 5.014 1.486 1.857-.078 2.973-.405 4.043-1.185 1.378-1.004 2.657-3.099 3.533-5.785l.444-1.36-.566-.527c-.87-.809-2.016-1.558-3.359-2.195-1.474-.7-2.184-.884-3.398-.884h-.924l-.08 1.061c-.154 2.023-1.047 4.16-2.275 5.442-.53.554-1.666 1.388-1.891 1.388-.057 0 .257-.245.698-.545 1.277-.868 2.13-2.144 2.724-4.082.518-1.888.357-3.946-.254-5.203-.662-1.358-2.02-2.921-3.552-4.088-.93-.71-1.292-1.03-1.613-1.045z"/><path style="fill:#c62937" d="M11.628 6.374c-.33.518-.586 1.03-.737 1.519a6.602 6.602 0 0 0-.195.828s.56.286 1.185.584c2.063.983 3.485 2.325 4.297 4.052l.412 1.023s-.181-3.43-4.962-8.006zm11.124 2.698-.08 1.061c-.153 2.023-1.047 4.16-2.275 5.442-.452.472-1.312 1.116-1.704 1.305l-.11.139s2.891-.45 6.761-7.746c-.537-.146-1.035-.2-1.667-.2zm-9.764 7.154c-1.445.04-4.03.5-8.4 2.298l.004.004c.203.26.415.5.632.723.036.036.07.076.107.11.063.063.128.122.193.181.164.149.33.294.502.42l.525.387 1.162-1.198c1.865-1.926 3.614-2.75 5.751-2.712l1.159.022s-.284-.185-1.083-.229a6.719 6.719 0 0 0-.552-.006zm4.309 2.754s1.158 2.914 9.504 4.39a6.9 6.9 0 0 0-.13-.995 11.435 11.435 0 0 0-.456-1.524s-.508.146-1.03.272c-2.673.645-5.644.02-7.249-1.526zm-2.581.844s-1.234.573-.65 9.364a7.502 7.502 0 0 0 1.664-.924l.572-.426-.336-.447c-.532-.71-1.228-2.374-1.48-3.543-.274-1.264-.216-3.015.123-3.756.035-.076.053-.105.077-.152.012-.04.017-.076.03-.116z"/><path style="opacity:.2;fill:#fff" d="M16.51 2c-.284-.012-.536.214-1.123.623-1.625 1.13-2.942 2.462-3.76 3.75v.002c-.16.253-.304.504-.424.752l-.012.023c-.12.252-.226.5-.3.743-.134.432-.222.805-.196.828l-.004.576a5.109 5.109 0 0 0-2.3-.115c-1.645.287-3.929 1.424-5.63 2.802L2 12.602l.223.818.539-.436c1.7-1.378 3.984-2.515 5.629-2.802.8-.14 1.519-.096 2.3.115l.004-.576c-.026-.023.062-.396.196-.828.074-.242.18-.491.3-.743l.012-.023c.12-.248.263-.499.424-.752v-.002c.818-1.288 2.135-2.62 3.76-3.75.587-.409.84-.635 1.123-.623.321.014.682.336 1.613 1.045 1.532 1.167 2.89 2.73 3.55 4.088.273.56.45 1.283.524 2.074l.555-.135H23.695c.308 0 .584.015.848.045h.004c.015.002.03.008.045.01.251.03.5.078.752.146.496.135 1.024.348 1.732.684 1.342.637 2.489 1.385 3.358 2.193l.316.295.25-.767-.566-.528c-.87-.808-2.016-1.556-3.358-2.193-.708-.336-1.236-.549-1.732-.684a5.32 5.32 0 0 0-.752-.146c-.015-.002-.03-.008-.045-.01h-.004a7.538 7.538 0 0 0-.848-.045H22.752l-.555.135c-.073-.791-.251-1.514-.523-2.074-.661-1.358-2.019-2.921-3.551-4.088-.931-.71-1.292-1.03-1.613-1.045zm9.838 19.229c-.121.062-.241.126-.366.181l.233.44v.002s.07.178.162.457.206.66.295 1.066c.004.017.004.037.008.055.061.294.098.61.12.937a9.358 9.358 0 0 0 0-.996v-.004a6.935 6.935 0 0 0-.12-.937c-.004-.018-.004-.038-.008-.055a11.081 11.081 0 0 0-.295-1.066c-.016-.05-.015-.038-.03-.08zm-19.692.2c-.3.777-.392 1.656-.353 2.83.05-1.024.256-1.803.7-2.562l-.347-.267z"/></svg>
